X:1
T:Go Work in the Vineyard
T:Go Work in the Vineyard
T:John Robson Sweney
T:Frances Jane (Fanny) Crosby, 1881
T:Public Domain Courtesy of the Cyber Hymnal™
T:Public Domain Courtesy of the Cyber Hymnal™
C:John Robson Sweney
Z:Public Domain
Z:Courtesy of the Cyber Hymnal™
%%score ( 1 2 ) 3
L:1/8
Q:1/4=95
M:6/8
K:G
V:1 treble 
V:2 treble 
V:3 bass 
V:1
 D | [GB][GB][GB] [GB][G^A][GB] | [DG][DG][DG] [DG]2 [GB] | [FA][FA][FA] [FA][GB][Ac] | %4
w: 1.~Go|work in the vine- yard, ’tis|Je- sus com- mands, Then|why are we i- dle and|
w: 2.~Go|forth in the vine- yard, how|ear- nest the call, There’s|work for the child- ren, there’s|
w: 3.~Go|work in the vine- yard, how|glad we should be That|Je- sus is say- ing to|
w: 4.~Go|forth at His bid- ding our|plac- es to fill, Go|forth at His bid- ding and|
 [ce][Bd][Ac] [GB]2 [GB] | [Gd][Gd][Gd] [Gd][Gc][GB] | [GB][G^A][GB] [DG]2 [DG] | %7
w: fold- ing our hands? He|speaks to the child- ren and|we must o- bey, Go|
w: plen- ty for all: Too|pre- cious the mo- ments to|squan- der a- way, Go|
w: you and to me, The|har- vest is com- ing, a-|rise! and a- way, Go|
w: work with a will; Grieve|not the dear Sav- ior by|long- er de- lay, Go|
 [EG][DF][CE] D!fermata![Dd][Ec] | [DB]!fermata![GB][FA] G3 || %9
w: work in the vine- yard, go|la- bor to- day.|
w: work in the vine- yard, go|la- bor to- day.|
w: work in the vine- yard, go|la- bor to- day.|
w: work in the vine- yard, go|la- bor to- day.|
"^Refrain" [FA][FA][GB] [Ac][GB][FA] | G[GB][Ge] [Gd]3 | [Fd][FA][FA] [FA][GB][Ac] | %12
w: |||
w: Sow in the morn- ing the|seed of the Word,|Sow in the morn- ing and|
w: |||
w: |||
 [Ac][GB][FA] [GB]3 | [Gd][Gd][Gd] [Gd][Gc][GB] | [GB][G^A][GB] [DG]3 | %15
w: |||
w: trust in the Lord,|He of our la- bor a|re- cord will keep;|
w: |||
w: |||
 [EG][DF][CE] D!fermata![Dd][Ec] | [DB][GB][FA] [DG]4 |] %17
w: ||
w: Life ev- er- last- ing and|joy we shall reap.|
w: ||
w: ||
V:2
 D | x6 | x6 | x6 | x6 | x6 | x6 | x3 D x2 | x3 G3 || x6 | G x5 | x6 | x6 | x6 | x6 | x3 D x2 | %16
 x7 |] %17
V:3
 [G,B,] | [G,D][G,D][G,D] [G,D][G,^C][G,D] | [G,B,][G,B,][G,B,] [G,B,]2 [G,D] | %3
 [D,D][D,D][D,D] [D,D][D,D][D,D] | [D,D][E,D][F,D] [G,D]2 [G,D] | %5
 [G,B,][G,B,][G,B,] [G,B,][G,E][G,D] | [G,D][G,^C][G,D] [G,B,]2 [B,,G,] | %7
 [C,G,][C,G,][C,G,] [C,G,]!fermata![C,G,][C,G,] | [D,G,]!fermata![D,D][D,C] [G,B,]3 || %9
 [D,D][D,D][D,D] [D,D][D,D][D,C] | [G,B,][G,D][G,C] [G,B,]3 | [D,A,][D,D][D,D] [D,D][D,D][D,D] | %12
 [D,D][D,D][D,D] [G,D]3 | [G,B,][G,B,][G,B,] [G,B,][G,E][G,D] | [G,D][G,^C][G,D] [G,B,]3 | %15
 [C,C][C,G,][C,G,] [B,,G,][B,,G,]!fermata![C,G,] | [D,G,][D,D][D,C] [G,,G,B,]4 |] %17

